images/sbt-logo.svg

<?xml version="1.0" encoding="UTF-8" standalone="no"?>
<svg width="60px" height="60px" viewBox="0 0 60 60" version="1.1" xmlns="http://www.w3.org/2000/svg" xmlns:xlink="http://www.w3.org/1999/xlink" xmlns:sketch="http://www.bohemiancoding.com/sketch/ns">
    <!-- Generator: Sketch 3.4.4 (17249) - http://www.bohemiancoding.com/sketch -->
    <title>SBT_Logo_Icon</title>
    <desc>Created with Sketch.</desc>
    <defs>
        <path id="path-1" d="M58.5645956,29.3901976 L52.0928519,29.3901976 C51.5419881,29.3901976 51.0944112,29.8377744 51.0944112,30.3881852 C51.0944112,30.9390491 51.5419881,31.3866259 52.0928519,31.3866259 L58.5645956,31.3866259 C59.1150064,31.3866259 59.5625833,30.9390491 59.5625833,30.3881852 C59.5625833,29.8377744 59.1150064,29.3901976 58.5645956,29.3901976"></path>
        <path id="path-2" d="M8.02737104,29.3901976 L1.55562727,29.3901976 C1.00476346,29.3901976 0.557186615,29.8377744 0.557186615,30.3881852 C0.557186615,30.9390491 1.00476346,31.3866259 1.55562727,31.3866259 L8.02737104,31.3866259 C8.57778184,31.3866259 9.02535868,30.9390491 9.02535868,30.3881852 C9.02535868,29.8377744 8.57778184,29.3901976 8.02737104,29.3901976"></path>
        <path id="path-3" d="M13.773388,15.5130503 C13.9604823,15.7028627 14.2119046,15.8075087 14.4800883,15.8075087 C14.7464599,15.8075087 14.9983351,15.7028627 15.1881476,15.5130503 C15.5741147,15.1243651 15.5741147,14.492865 15.1867885,14.1028208 L10.6095452,9.52693645 C10.2326383,9.14867059 9.5730514,9.15138867 9.19750362,9.52693645 C8.80881847,9.91562161 8.80881847,10.5502928 9.19750362,10.938978 L13.773388,15.5130503 L13.773388,15.5130503 Z"></path>
        <path id="path-4" d="M13.7752,45.2624142 L9.19931568,49.8382985 C9.00950323,50.0267519 8.90485722,50.2768151 8.90485722,50.5449988 C8.90485722,50.8127295 9.00950323,51.0627927 9.19931568,51.2512461 C9.38958114,51.4396995 9.63964431,51.5429865 9.90465692,51.5429865 C10.1710286,51.5429865 10.4215448,51.4396995 10.6099982,51.2512461 L15.1886006,46.6726437 C15.5727556,46.2839585 15.5727556,45.6510993 15.1854295,45.2596961 C14.8103347,44.8886785 14.156637,44.8855074 13.7752,45.2624142"></path>
        <path id="path-5" d="M30.0592054,51.422032 C29.5087946,51.422032 29.0612178,51.8696088 29.0612178,52.4200196 L29.0612178,58.8922164 C29.0612178,59.4426272 29.5087946,59.8902041 30.0592054,59.8902041 C30.6096162,59.8902041 31.0590051,59.4426272 31.0590051,58.8922164 L31.0590051,52.4200196 C31.0590051,51.8696088 30.6096162,51.422032 30.0592054,51.422032"></path>
        <path id="path-6" d="M46.3436639,45.2592431 C45.966757,44.8882254 45.3144183,44.8855074 44.9316223,45.2619612 C44.5461083,45.6506463 44.5461083,46.2839585 44.9334344,46.6753617 L49.5102247,51.2512461 C49.6986782,51.4396995 49.9491943,51.5425334 50.215566,51.5425334 C50.4805786,51.5425334 50.7310948,51.4396995 50.9209072,51.2512461 C51.1107197,51.0627927 51.2153657,50.8122765 51.2153657,50.5445458 C51.2153657,50.2768151 51.1107197,50.0262989 50.9222663,49.8410166 L46.3436639,45.2592431 L46.3436639,45.2592431 Z"></path>
        <path id="path-7" d="M45.6383226,15.8075087 C45.9046943,15.8075087 46.1565695,15.7028627 46.3450229,15.5144093 L50.9204542,10.938978 C51.3091394,10.5502928 51.3091394,9.91562161 50.9204542,9.52693645 C50.5421884,9.14867059 49.8844135,9.15138867 49.5088657,9.52693645 L44.9329814,14.1028208 C44.5442962,14.491506 44.5442962,15.1257242 44.9316223,15.5130503 C45.1187167,15.7028627 45.3705919,15.8075087 45.6383226,15.8075087"></path>
        <path id="path-8" d="M38.2551167,16.6025465 C37.8002916,16.3302857 37.1597312,16.4997126 36.8888295,16.9558967 C36.6093204,17.4283893 36.768328,18.0422219 37.2421796,18.3235429 C41.5557694,20.8631338 44.2353413,25.5450232 44.2353413,30.5417567 C44.2353413,38.35759 37.8754918,44.7178926 30.0592054,44.7178926 C22.2429191,44.7178926 15.8844286,38.35759 15.8844286,30.5417567 C15.8844286,25.5450232 18.5640005,20.8631338 22.8775903,18.3221839 C23.3518949,18.0422219 23.5109025,17.4283893 23.2309404,16.9558967 C22.9632097,16.5010716 22.3226494,16.3361749 21.8646532,16.6011875 C16.944479,19.5000177 13.8884533,24.8424001 13.8884533,30.5417567 C13.8884533,39.4588646 21.1420975,46.7138678 30.0592054,46.7138678 C38.9763134,46.7138678 46.2317696,39.4588646 46.2317696,30.5417567 C46.2317696,24.8424001 43.1752909,19.5000177 38.2551167,16.6025465"></path>
        <path id="path-9" d="M30.0592054,31.3866259 C30.6096162,31.3866259 31.0590051,30.9390491 31.0590051,30.3886383 L31.0590051,1.18379597 C31.0590051,0.633385174 30.6096162,0.185808327 30.0592054,0.185808327 C29.5087946,0.185808327 29.0612178,0.633385174 29.0612178,1.18379597 L29.0612178,30.3886383 C29.0612178,30.9390491 29.5087946,31.3866259 30.0592054,31.3866259"></path>
    </defs>
    <g id="Round-2" stroke="none" stroke-width="1" fill="none" fill-rule="evenodd" sketch:type="MSPage">
        <g id="sbt-home-mobile-copy" sketch:type="MSArtboardGroup" transform="translate(-158.000000, -10.000000)">
            <g id="Rectangle-3-+-SBT_Logo_Icon-+-MENU" sketch:type="MSLayerGroup" transform="translate(148.000000, 0.000000)">
                <g id="Rectangle-3-+-SBT_Logo_Icon">
                    <g id="SBT_Logo_Icon" transform="translate(10.000000, 10.000000)">
                        <g id="Shape">
                            <use fill="#E9ECF1" fill-rule="evenodd" sketch:type="MSShapeGroup" xlink:href="#path-1"></use>
                            <use fill="none" xlink:href="#path-1"></use>
                        </g>
                        <g id="Shape">
                            <use fill="#E9ECF1" fill-rule="evenodd" sketch:type="MSShapeGroup" xlink:href="#path-2"></use>
                            <use fill="none" xlink:href="#path-2"></use>
                        </g>
                        <g id="Shape">
                            <use fill="#E9ECF1" fill-rule="evenodd" sketch:type="MSShapeGroup" xlink:href="#path-3"></use>
                            <use fill="none" xlink:href="#path-3"></use>
                        </g>
                        <g id="Shape">
                            <use fill="#E9ECF1" fill-rule="evenodd" sketch:type="MSShapeGroup" xlink:href="#path-4"></use>
                            <use fill="none" xlink:href="#path-4"></use>
                        </g>
                        <g id="Shape">
                            <use fill="#E9ECF1" fill-rule="evenodd" sketch:type="MSShapeGroup" xlink:href="#path-5"></use>
                            <use fill="none" xlink:href="#path-5"></use>
                        </g>
                        <g id="Shape">
                            <use fill="#E9ECF1" fill-rule="evenodd" sketch:type="MSShapeGroup" xlink:href="#path-6"></use>
                            <use fill="none" xlink:href="#path-6"></use>
                        </g>
                        <g id="Shape">
                            <use fill="#E9ECF1" fill-rule="evenodd" sketch:type="MSShapeGroup" xlink:href="#path-7"></use>
                            <use fill="none" xlink:href="#path-7"></use>
                        </g>
                        <g id="Shape">
                            <use fill="#E9ECF1" fill-rule="evenodd" sketch:type="MSShapeGroup" xlink:href="#path-8"></use>
                            <use fill="none" xlink:href="#path-8"></use>
                        </g>
                        <g id="Shape">
                            <use fill="#E9ECF1" fill-rule="evenodd" sketch:type="MSShapeGroup" xlink:href="#path-9"></use>
                            <use fill="none" xlink:href="#path-9"></use>
                        </g>
                    </g>
                </g>
            </g>
        </g>
    </g>
</svg>

<svg width="60" height="60" viewBox="0 0 60 60" xmlns="http://www.w3.org/2000/svg" xmlns:xlink="http://www.w3.org/1999/xlink"><title>SBT_Logo_Icon</title><defs><path id="a" d="M58.565 29.39h-6.472a1 1 0 0 0 0 1.997h6.472a1 1 0 0 0 0-1.997"/><path id="b" d="M8.027 29.39H1.556a1 1 0 0 0 0 1.997h6.471a1 1 0 0 0 0-1.997"/><path id="c" d="M13.773 15.513a.996.996 0 0 0 1.415 0 1.002 1.002 0 0 0-.001-1.41L10.61 9.527a1.023 1.023 0 0 0-1.412 0 1 1 0 0 0 0 1.412l4.575 4.574z"/><path id="d" d="M13.775 45.262L9.2 49.838a.988.988 0 0 0-.294.707.996.996 0 0 0 1.705.706l4.579-4.578a1.007 1.007 0 0 0-.004-1.413 1.027 1.027 0 0 0-1.41.002"/><path id="e" d="M30.06 51.422a.999.999 0 0 0-.999.998v6.472a.999.999 0 0 0 1.998 0V52.42a1 1 0 0 0-1-.998"/><path id="f" d="M46.344 45.26a1.03 1.03 0 0 0-1.412.002 1.007 1.007 0 0 0 .001 1.413l4.577 4.576a.99.99 0 0 0 .706.292.995.995 0 0 0 .705-.292.988.988 0 0 0 .294-.706.98.98 0 0 0-.293-.704l-4.578-4.582z"/><path id="g" d="M45.638 15.808a.995.995 0 0 0 .707-.294l4.575-4.575a1 1 0 0 0 0-1.412 1.022 1.022 0 0 0-1.411 0l-4.576 4.576a1 1 0 0 0 .705 1.705"/><path id="h" d="M38.255 16.603c-.455-.273-1.095-.103-1.366.353-.28.472-.12 1.086.353 1.368 4.314 2.54 6.993 7.221 6.993 12.218 0 7.816-6.36 14.176-14.176 14.176s-14.175-6.36-14.175-14.176c0-4.997 2.68-9.679 6.994-12.22a.999.999 0 0 0 .353-1.366c-.268-.455-.908-.62-1.366-.355-4.92 2.899-7.977 8.241-7.977 13.94 0 8.918 7.254 16.173 16.171 16.173s16.173-7.255 16.173-16.172c0-5.7-3.057-11.042-7.977-13.94"/><path id="i" d="M30.06 31.387a1 1 0 0 0 .999-.998V1.184a.999.999 0 0 0-1.998 0v29.205c0 .55.448.998.998.998"/></defs><g fill="none" fill-rule="evenodd"><g><use fill="#E9ECF1" xlink:href="#a"/><use xlink:href="#a"/></g><g><use fill="#E9ECF1" xlink:href="#b"/><use xlink:href="#b"/></g><g><use fill="#E9ECF1" xlink:href="#c"/><use xlink:href="#c"/></g><g><use fill="#E9ECF1" xlink:href="#d"/><use xlink:href="#d"/></g><g><use fill="#E9ECF1" xlink:href="#e"/><use xlink:href="#e"/></g><g><use fill="#E9ECF1" xlink:href="#f"/><use xlink:href="#f"/></g><g><use fill="#E9ECF1" xlink:href="#g"/><use xlink:href="#g"/></g><g><use fill="#E9ECF1" xlink:href="#h"/><use xlink:href="#h"/></g><g><use fill="#E9ECF1" xlink:href="#i"/><use xlink:href="#i"/></g></g></svg>
